src/assets/beard-icon.svg

<svg width="119" height="119" viewBox="0 0 119 119" fill="none" xmlns="http://www.w3.org/2000/svg">
<path fill-rule="evenodd" clip-rule="evenodd" d="M29.8691 54.6376C30.6751 71.9885 36.6394 90.2475 59.8224 90.2475C83.1272 90.2475 89.0319 71.7961 89.788 54.3643C86.1806 55.9104 81.9173 56.9694 77.0041 56.9731C74.2275 64.6571 67.5025 65.9047 64.9851 65.8475C64.6251 65.8393 64.3146 65.8424 64.0474 65.8451C63.1523 65.8542 62.7438 65.8583 62.5917 65.4157C62.4064 64.8763 62.05 64.3754 61.4796 64.3754H59.8224H58.1652C57.5949 64.3754 57.2384 64.8763 57.0531 65.4157C56.9011 65.8583 56.4925 65.8542 55.5974 65.8451C55.3302 65.8424 55.0197 65.8393 54.6597 65.8475C52.1417 65.9047 45.4141 64.6565 42.6387 56.9676C37.7522 57.055 33.4938 56.0983 29.8691 54.6376Z" fill="#F2C247"/>
<path d="M46.3111 54.1448C58.3146 52.6548 60.5199 45.201 59.1355 41.4318C57.7512 37.6626 54.0149 37.0657 48.8167 38.4634C42.9233 40.0479 37.4803 44.12 32.0156 45.201C26.684 46.2558 23.8667 46.9747 17.1406 42.8509C21.5384 47.7729 31.3068 56.0073 46.3111 54.1448Z" fill="#F2C247"/>
<path d="M72.6886 54.1448C60.6851 52.6548 58.4798 45.201 59.8642 41.4318C61.2485 37.6626 64.9848 37.0657 70.183 38.4634C76.0764 40.0479 81.5194 44.12 86.9841 45.201C92.3157 46.2558 95.133 46.9747 101.859 42.8509C97.4613 47.7729 87.6929 56.0073 72.6886 54.1448Z" fill="#F2C247"/>
<path d="M63.9767 24.2033L63.9768 24.2034C65.2977 27.9389 67.0514 31.0461 69.7434 33.1231C72.4138 35.1833 76.1232 36.3173 81.5417 35.8795C83.019 35.7577 84.8199 35.3825 86.4629 34.84C88.132 34.2889 89.5166 33.6046 90.255 32.9261C91.1541 32.0985 91.7785 30.8894 92.2528 29.416C92.7079 28.0023 92.9982 26.4362 93.2903 24.86C93.3026 24.7933 93.315 24.7267 93.3274 24.66C93.3945 24.2945 93.4441 23.929 93.4971 23.5389C93.5246 23.3363 93.553 23.127 93.5853 22.9077C93.6751 22.2966 93.7911 21.6408 93.9987 21.0274C93.9987 21.0271 93.9988 21.0269 93.9989 21.0266L94.8514 21.3152C95.0278 20.7926 95.3546 20.3181 95.6924 19.8276C95.9596 19.4397 96.2337 19.0418 96.4456 18.6021L63.9767 24.2033ZM63.9767 24.2033C63.88 23.9298 63.79 23.6521 63.6979 23.3662L63.6798 23.3099C63.5947 23.0454 63.5068 22.7724 63.4144 22.5066C63.218 21.942 62.9816 21.3513 62.6445 20.8297C62.3 20.2966 61.8386 19.8171 61.191 19.5016C60.5464 19.1875 59.7903 19.0715 58.9123 19.1424L58.9118 19.1424C58.1802 19.2018 57.5547 19.4025 57.0297 19.773C56.5083 20.141 56.1521 20.63 55.8826 21.157C55.618 21.6744 55.4185 22.2667 55.2322 22.871C55.1681 23.079 55.1057 23.2876 55.0423 23.4998C54.9141 23.9287 54.7816 24.372 54.6214 24.8538L54.621 24.855C53.6042 27.9273 52.1705 30.5686 50.0779 32.5122C47.9999 34.4422 45.2138 35.7388 41.3814 36.0336L41.3814 36.0336C39.1011 36.2091 36.5611 36.0638 34.3104 35.6026C32.029 35.1351 30.1793 34.3704 29.1538 33.4076C28.2016 32.5107 27.4984 31.0949 26.9353 29.3344C26.4103 27.6934 26.0386 25.8614 25.6702 24.0456C25.6456 23.9245 25.6211 23.8035 25.5965 23.6827L25.5964 23.682C25.2824 22.1437 24.9003 21.4404 24.1944 20.349L24.1945 20.349L24.192 20.3452C23.9166 19.9239 23.6723 19.483 23.4612 19.026C23.3667 18.8174 23.2717 18.6131 23.1782 18.4119C22.4177 16.7763 21.7537 15.3482 22.2224 13.5043C32.2282 11.9497 41.1724 12.009 50.2068 13.7462L50.2072 13.7462C51.0942 13.9164 51.9579 14.1149 52.84 14.3176C53.436 14.4545 54.0403 14.5934 54.6659 14.7267C56.1764 15.0487 57.73 15.3185 59.2836 15.3562C61.1076 15.4004 63.0859 15.0721 64.9762 14.6642C65.8845 14.4682 66.7867 14.2505 67.6501 14.0422L67.7667 14.0141C68.6703 13.7961 69.5272 13.5906 70.3265 13.4254C78.6451 11.7128 87.6867 10.9633 96.7218 12.842C97.2942 14.6981 96.6241 16.1503 95.6343 18.2125L63.9767 24.2033Z" stroke="#EFEFEF" stroke-width="1.8"/>
</svg>

<svg xmlns="http://www.w3.org/2000/svg" width="119" height="119" fill="none" viewBox="0 0 119 119">
    <path fill="#F2C247" fill-rule="evenodd" d="M29.87 54.638c.805 17.35 6.77 35.61 29.952 35.61 23.305 0 29.21-18.452 29.966-35.884-3.607 1.546-7.87 2.605-12.784 2.61-2.776 7.683-9.502 8.93-12.019 8.873a27.34 27.34 0 0 0-.938-.002c-.895.01-1.303.013-1.455-.43-.186-.539-.542-1.04-1.112-1.04h-3.315c-.57 0-.927.501-1.112 1.04-.152.443-.56.44-1.456.43a27.34 27.34 0 0 0-.937.002c-2.518.058-9.246-1.19-12.021-8.88-4.887.088-9.145-.869-12.77-2.33Z" clip-rule="evenodd"/>
    <path fill="#F2C247" d="M46.311 54.145c12.004-1.49 14.209-8.944 12.825-12.713-1.385-3.77-5.121-4.366-10.32-2.969-5.893 1.585-11.336 5.657-16.8 6.738-5.332 1.055-8.15 1.774-14.875-2.35 4.397 4.922 14.166 13.156 29.17 11.294Z"/>
    <path fill="#F2C247" d="M72.689 54.145c-12.004-1.49-14.21-8.944-12.825-12.713 1.385-3.77 5.12-4.366 10.319-2.969 5.893 1.585 11.336 5.657 16.801 6.738 5.332 1.055 8.149 1.774 14.875-2.35-4.398 4.922-14.166 13.156-29.17 11.294Z"/>
    <path stroke="#EFEFEF" stroke-width="1.8" d="M63.977 24.203c1.32 3.736 3.074 6.843 5.766 8.92 2.67 2.06 6.38 3.194 11.799 2.757 1.477-.122 3.278-.498 4.92-1.04 1.67-.551 3.055-1.235 3.793-1.914.9-.828 1.523-2.037 1.998-3.51.455-1.414.745-2.98 1.037-4.556l.037-.2c.067-.366.117-.731.17-1.121.028-.203.056-.412.088-.631.09-.611.206-1.267.414-1.88v-.001l.852.288c.177-.522.504-.997.841-1.487.268-.388.542-.786.754-1.226l-32.47 5.601Zm0 0a31.329 31.329 0 0 1-.28-.837l-.017-.056a36.572 36.572 0 0 0-.266-.803c-.196-.565-.432-1.156-.77-1.677-.344-.533-.805-1.013-1.453-1.328-.645-.314-1.4-.43-2.279-.36-.732.06-1.357.26-1.882.631-.522.368-.878.857-1.147 1.384-.265.517-.465 1.11-.65 1.714a76.32 76.32 0 0 0-.19.629c-.129.429-.261.872-.422 1.354v.001c-1.017 3.072-2.45 5.714-4.543 7.657-2.078 1.93-4.864 3.227-8.697 3.522-2.28.175-4.82.03-7.07-.431-2.282-.468-4.132-1.233-5.157-2.195-.952-.897-1.656-2.313-2.219-4.074-.525-1.64-.896-3.473-1.265-5.288l-.074-.363v-.001c-.314-1.538-.696-2.242-1.402-3.333l-.002-.004c-.275-.421-.52-.862-.73-1.319-.095-.209-.19-.413-.284-.614-.76-1.636-1.424-3.064-.956-4.908 10.006-1.554 18.95-1.495 27.985.242.887.17 1.75.369 2.633.572.596.136 1.2.275 1.826.409 1.51.322 3.064.591 4.618.63 1.824.043 3.802-.285 5.692-.693.909-.196 1.81-.413 2.674-.622l.117-.028c.903-.218 1.76-.423 2.56-.589 8.318-1.712 17.36-2.462 26.395-.583.572 1.856-.098 3.308-1.088 5.37l-31.657 5.991Z"/>
</svg>
